assets/images/icon_mob_3.svg

<svg width="36" height="36" viewBox="0 0 36 36" fill="none" xmlns="http://www.w3.org/2000/svg">
<path d="M15.9608 35.5852C15.4255 35.3282 15.0202 34.9589 15.0202 34.3233C15.0202 33.9954 15.0727 33.6564 15.1685 33.3423C15.327 32.8228 15.2459 32.4231 14.7844 32.0961C14.5531 31.9331 14.3615 31.7092 14.169 31.4974C13.49 30.7495 13.8641 29.5861 14.8525 29.3844C15.2781 29.2978 15.7102 29.2361 16.1413 29.1864C16.3366 29.1642 16.4508 29.0869 16.5319 28.9109C16.6996 28.548 16.8866 28.1934 17.0635 27.8351C17.3039 27.3488 17.6945 27.0844 18.238 27.0853C18.7815 27.0863 19.1703 27.3534 19.4098 27.8397C19.5766 28.1777 19.7488 28.514 19.9073 28.8557C20.0012 29.0592 20.1238 29.1698 20.3688 29.191C20.7898 29.2269 21.209 29.2987 21.6235 29.3853C22.5963 29.587 22.9805 30.7338 22.3199 31.4753C22.0307 31.8004 21.7101 32.0979 21.3914 32.3945C21.232 32.5428 21.1767 32.6874 21.2274 32.9085C21.313 33.2871 21.36 33.6739 21.4236 34.058C21.5268 34.6862 21.2486 35.2158 20.6728 35.4913C20.6175 35.518 20.5282 35.4931 20.5107 35.5861H19.8907C19.4863 35.3807 19.0699 35.1956 18.6811 34.9653C18.3753 34.7839 18.121 34.7664 17.8078 34.9589C17.4172 35.1983 16.9916 35.3798 16.5817 35.5871H15.9617L15.9608 35.5852ZM16.0934 34.1354C16.0741 34.5287 16.2076 34.6171 16.508 34.4661C16.8654 34.2865 17.2219 34.1022 17.572 33.9088C18.0096 33.6666 18.4425 33.6638 18.881 33.8978C19.2339 34.0866 19.5876 34.2736 19.9441 34.4559C20.0519 34.5112 20.1606 34.595 20.2942 34.4974C20.4241 34.4025 20.3918 34.2736 20.3734 34.1529C20.3181 33.7909 20.2573 33.4298 20.1919 33.0697C20.0943 32.5364 20.2002 32.074 20.6166 31.6954C20.9132 31.4255 21.1988 31.1409 21.477 30.8517C21.688 30.6316 21.6364 30.4593 21.3379 30.3939C21.0809 30.3377 20.8184 30.3036 20.5567 30.2778C19.8925 30.2125 19.2891 30.0614 18.9925 29.3604C18.8451 29.0132 18.6655 28.6797 18.495 28.3426C18.4444 28.2413 18.39 28.1391 18.2482 28.1335C18.0888 28.1271 18.028 28.2367 17.9718 28.35C17.7829 28.7286 17.6024 29.1117 17.408 29.4876C17.1869 29.9159 16.8276 30.1517 16.3495 30.2125C15.9635 30.2622 15.5785 30.3202 15.1934 30.381C15.0709 30.4004 14.9382 30.4169 14.8885 30.5643C14.8369 30.7172 14.9447 30.7992 15.0322 30.8858C15.3012 31.1529 15.5674 31.4228 15.8465 31.6779C16.2703 32.0639 16.3873 32.5336 16.2767 33.0826C16.203 33.4529 16.1468 33.8268 16.0934 34.1354Z" fill="#FE0000"/>
<path d="M0.58934 25.7985C0.856494 25.3205 1.26828 25.1003 1.81088 25.0994C2.12686 25.0994 2.33966 24.9576 2.43639 24.6416C2.47968 24.5016 2.55707 24.3699 2.63353 24.2428C3.03518 23.5759 3.98956 23.5409 4.31568 24.2419C4.59112 24.8332 4.94579 25.093 5.58972 25.1823C6.39763 25.2947 6.69611 26.2637 6.08995 26.8044C5.60538 27.2364 5.49944 27.6536 5.63763 28.2652C5.79239 28.9496 5.06186 29.529 4.38937 29.3199C3.89099 29.1651 3.08216 29.1642 2.59668 29.3171C1.91958 29.5308 1.1955 28.9708 1.34106 28.2754C1.47095 27.6527 1.41567 27.1719 0.8611 26.797C0.74042 26.7159 0.678699 26.5465 0.58934 26.4184C0.58934 26.2121 0.58934 26.0048 0.58934 25.7985ZM3.45157 24.8176C3.21942 25.7866 2.628 26.1854 1.7077 26.1808C2.48705 26.7132 2.70446 27.3856 2.37835 28.2689C3.12177 27.6868 3.84309 27.6941 4.58007 28.2947C4.55243 27.8185 4.37279 27.4473 4.5165 27.0512C4.65284 26.6745 5.04068 26.5022 5.2369 26.1596C3.9564 25.9818 4.05866 25.9827 3.45249 24.8176H3.45157Z" fill="#FE0000"/>
<path d="M7.41102 31.3813C7.44234 31.2091 7.48932 30.9272 7.5446 30.6463C7.58329 30.4528 7.55473 30.2981 7.38799 30.1608C7.18532 29.9932 6.99831 29.8044 6.8196 29.611C6.53494 29.3024 6.43637 28.9413 6.57271 28.5323C6.71181 28.1142 6.99924 27.8673 7.43497 27.7946C7.66067 27.7568 7.88729 27.6895 8.11299 27.6932C8.42528 27.6988 8.55149 27.5201 8.65559 27.276C8.74034 27.077 8.83707 26.8817 8.94025 26.692C9.14936 26.3061 9.48469 26.0961 9.91766 26.1016C10.3331 26.1071 10.721 26.284 10.8527 26.6865C11.106 27.4584 11.5998 27.754 12.3976 27.8176C13.2331 27.8839 13.5758 28.9008 13.0424 29.5538C12.9273 29.6957 12.8038 29.8431 12.6537 29.9416C12.2401 30.2134 12.2069 30.5753 12.3285 31.0073C12.3838 31.2035 12.4215 31.4145 12.4132 31.6171C12.3801 32.3917 11.5482 32.9352 10.8859 32.5336C10.1922 32.1127 9.63853 32.1016 8.93656 32.529C8.21525 32.9684 7.37417 32.3485 7.41194 31.3822L7.41102 31.3813ZM7.51512 28.7728C7.89006 29.2849 8.40225 29.5271 8.5736 30.0393C8.74679 30.556 8.45753 31.0598 8.46766 31.5904C8.97986 31.4301 9.3594 31.0138 9.90661 31.0138C10.451 31.0138 10.8324 31.4292 11.3207 31.5803C11.4239 31.0543 11.0019 30.5827 11.2267 30.0457C11.4395 29.5373 11.9361 29.2849 12.2355 28.8511C11.7343 28.6751 11.1788 28.7949 10.7348 28.4771C10.2889 28.1575 10.229 27.5809 9.84673 27.0872C9.5547 28.326 8.80391 28.8953 7.51512 28.7718V28.7728Z" fill="#FE0000"/>
<path d="M29.9532 28.805C29.9633 29.2213 29.8104 29.5234 29.5341 29.7242C28.9887 30.1212 28.8118 30.5845 29.0311 31.2505C29.1775 31.6963 29.0476 32.1449 28.6331 32.4424C28.213 32.7436 27.7515 32.7445 27.3508 32.4507C26.8063 32.0519 26.3218 32.0758 25.7828 32.4525C25.3886 32.7289 24.939 32.75 24.5281 32.4599C24.1228 32.1734 23.9478 31.758 24.0998 31.2855C24.3227 30.5947 24.1293 30.1 23.5544 29.6773C23.1776 29.4 23.0938 28.9662 23.2311 28.5268C23.3702 28.0838 23.6963 27.789 24.1652 27.7927C24.9197 27.7982 25.3416 27.4482 25.5774 26.7509C25.7211 26.3254 26.0988 26.108 26.5447 26.1006C26.9906 26.0933 27.3858 26.2904 27.5286 26.7187C27.7764 27.463 28.2554 27.7724 29.0265 27.8084C29.5939 27.8351 29.9495 28.3113 29.9504 28.805H29.9532ZM26.5659 27.1553C26.2508 27.5873 26.1808 28.1436 25.7506 28.4679C25.3103 28.8004 24.7437 28.6816 24.2398 28.8556C24.5585 29.284 25.0689 29.5262 25.2366 30.0411C25.4033 30.5532 25.1168 31.0589 25.1463 31.6862C26.1163 30.8047 27.0587 30.8857 28.0463 31.6309C27.5691 30.4243 27.9247 29.5363 28.9758 28.8778C28.4019 28.676 27.8455 28.7949 27.4005 28.4808C26.9491 28.163 26.8938 27.5818 26.5659 27.1553Z" fill="#FE0000"/>
<path d="M35.8822 26.1117C35.9043 26.4811 35.7173 26.7556 35.4474 26.9656C35.0936 27.2392 34.9886 27.5348 35.0992 27.9945C35.2724 28.7203 34.9647 29.2057 34.3548 29.3512C34.0637 29.4203 33.7993 29.3347 33.5736 29.1735C33.172 28.8879 32.8026 28.8787 32.3972 29.1735C32.154 29.3494 31.8675 29.4305 31.5506 29.3319C31.0357 29.1707 30.7086 28.724 30.8441 28.2045C30.9933 27.6306 30.8947 27.2051 30.4028 26.8431C30.0785 26.6045 30.0159 26.2223 30.1264 25.8428C30.237 25.4605 30.5069 25.175 30.9067 25.1658C31.5469 25.151 31.8731 24.8517 32.131 24.2751C32.4608 23.54 33.5073 23.5391 33.8371 24.2732C34.096 24.8508 34.4313 25.1206 35.0623 25.1704C35.5847 25.2118 35.8785 25.6254 35.8831 26.1117H35.8822ZM31.8731 28.2736C32.6248 27.6868 33.3415 27.6923 34.0932 28.2653C33.7468 27.369 34.025 26.704 34.7703 26.1624C33.8224 26.2002 33.2613 25.7544 33.0089 24.8554C32.3972 25.9487 32.6395 25.9321 31.1794 26.1919C31.9596 26.7086 32.2185 27.3792 31.8721 28.2726L31.8731 28.2736Z" fill="#FE0000"/>
<path d="M17.5582 24.6721C17.4707 25.0756 17.3251 25.2054 16.9327 25.2064C15.9792 25.21 15.0257 25.2128 14.0723 25.2064C13.14 25.199 12.4574 24.5017 12.4482 23.564C12.4445 23.206 12.2639 23.027 11.9065 23.027C9.83927 23.027 7.77021 22.9957 5.70392 23.0381C4.39855 23.0657 3.85871 22.198 3.9057 21.2484C3.96005 20.1597 3.84305 19.0654 3.96281 17.9785C4.17009 16.0949 5.14013 14.7178 6.80017 13.8179C6.88032 13.7746 6.95862 13.7295 7.05535 13.6751C6.24375 13.0847 5.73063 12.3193 5.51783 11.3475C5.07657 9.33033 6.61408 7.2155 8.6684 7.00733C9.33537 6.94009 9.97285 7.01101 10.5799 7.28918C10.7835 7.38221 10.9457 7.41077 11.1364 7.26063C11.2782 7.14918 11.4542 7.08102 11.6347 6.98338C10.6205 6.19308 10.0539 5.18816 10.0945 3.88205C10.1267 2.86424 10.5293 2.02235 11.269 1.3343C12.7356 -0.0298482 15.0423 0.104632 16.4076 1.63273C17.6577 3.03188 17.7157 5.50318 15.7618 6.97417C16.0419 7.14365 16.3228 7.30484 16.5927 7.48169C16.7116 7.55907 16.8129 7.51762 16.917 7.48169C17.818 7.17036 18.7162 7.18049 19.6097 7.50196C19.7405 7.54893 19.8336 7.54433 19.9524 7.46327C20.2076 7.29103 20.4794 7.14273 20.7622 6.97417C19.7544 6.21887 19.1952 5.21119 19.2127 3.93547C19.2265 2.94161 19.6051 2.08038 20.332 1.39509C21.8299 -0.0160317 24.144 0.0769991 25.5 1.58668C26.8137 3.04938 26.8441 5.48383 24.892 6.97233C24.9031 6.98614 24.9123 7.00272 24.9261 7.01285C25.3554 7.34721 25.7718 7.33432 26.3006 7.15562C28.0582 6.5606 29.9928 7.48169 30.7095 9.17743C30.8845 9.59192 30.8072 9.8093 30.4083 10.0147C30.0333 10.0562 29.8666 9.83509 29.721 9.52561C29.1941 8.40003 27.9532 7.80223 26.7851 8.08685C25.5553 8.38713 24.7032 9.45652 24.7262 10.6696C24.7492 11.8744 25.5977 12.9226 26.7731 13.198C27.9265 13.4679 29.1149 12.9171 29.6824 11.8228C29.8491 11.5014 30.0665 11.3558 30.4212 11.4203C30.7786 11.6883 30.8293 11.879 30.6358 12.2686C30.3539 12.8342 29.9449 13.291 29.4124 13.6761C30.2296 14.0537 30.9159 14.576 31.4575 15.2751C32.2083 16.2422 32.552 17.3494 32.5566 18.5671C32.5602 19.4974 32.5584 20.4268 32.5566 21.3571C32.5547 22.42 31.9633 23.0224 30.8993 23.0252C28.7289 23.0307 26.5585 23.0335 24.3881 23.0187C24.085 23.0169 24.0086 23.0887 24.0132 23.3927C24.0307 24.5782 23.3849 25.2064 22.1882 25.2073C21.3158 25.2073 20.4425 25.2091 19.5701 25.2073C19.1454 25.2064 18.999 25.0838 18.9105 24.6721C18.9759 24.3055 19.1952 24.1618 19.5655 24.1674C20.4729 24.1812 21.3794 24.1747 22.2868 24.1701C22.7189 24.1683 22.9823 23.9638 22.9777 23.5769C22.9611 22.2229 23.0708 20.8661 22.9234 19.5167C22.6452 16.9635 20.1744 14.9527 17.4228 15.4492C15.1188 15.8655 13.502 17.8505 13.4864 20.1956C13.479 21.2751 13.4836 22.3546 13.4864 23.4332C13.4873 23.9527 13.6983 24.1655 14.2151 24.1674C15.1105 24.171 16.0068 24.1793 16.9023 24.1664C17.2726 24.1609 17.4909 24.3046 17.5573 24.6712L17.5582 24.6721ZM8.79 21.954C8.79 21.954 8.79 21.9604 8.79 21.9641C9.89178 21.9641 10.9936 21.9576 12.0953 21.9696C12.3459 21.9724 12.4703 21.9346 12.4436 21.6417C12.4141 21.323 12.4463 20.9997 12.4353 20.6782C12.3966 19.5849 12.5661 18.5348 13.0663 17.552C13.128 17.4305 13.0949 17.3393 13.0626 17.2297C12.6094 15.6813 11.1345 14.4765 9.5279 14.3411C6.87755 14.1182 4.98076 16.2947 5.0084 18.4446C5.02129 19.4311 5.0084 20.4185 5.01024 21.405C5.01024 21.8443 5.11986 21.953 5.55376 21.953C6.63251 21.9549 7.71126 21.953 8.79 21.953V21.954ZM27.6391 21.9751C28.7188 21.9761 29.7975 21.977 30.8772 21.9751C31.3921 21.9751 31.4935 21.8711 31.4972 21.3451C31.499 20.9665 31.5008 20.5871 31.4972 20.2085C31.4879 19.4163 31.5681 18.6177 31.4529 17.8339C31.1793 15.9641 29.5939 14.4664 27.7911 14.3218C25.8142 14.1624 24.1062 15.2604 23.4457 17.1044C23.3711 17.3126 23.3738 17.4839 23.4752 17.6838C23.6723 18.0715 23.7958 18.487 23.8916 18.9116C24.0961 19.8189 24.0141 20.739 24.0187 21.6546C24.0196 21.9005 24.062 21.9853 24.3328 21.9816C25.4346 21.9641 26.5373 21.9742 27.64 21.9742L27.6391 21.9751ZM18.2601 8.31068C16.5881 8.29963 15.2284 9.63061 15.2128 11.295C15.1971 12.9337 16.5476 14.3107 18.1837 14.3245C19.8861 14.3383 21.2495 13.0166 21.2652 11.3374C21.2799 9.68035 19.9322 8.32173 18.2611 8.31068H18.2601ZM9.12993 8.03251C7.67901 8.02698 6.52104 9.16362 6.50998 10.6061C6.49893 12.0669 7.64585 13.2459 9.09493 13.2634C10.5283 13.28 11.7351 12.0964 11.7499 10.6586C11.7646 9.22349 10.5827 8.03896 9.13086 8.03251H9.12993ZM22.8294 6.55139C24.2518 6.54678 25.3922 5.41383 25.3959 4.00363C25.3996 2.5962 24.2177 1.42364 22.8036 1.43285C21.408 1.44206 20.2362 2.62752 20.2546 4.01192C20.273 5.43225 21.4126 6.55599 22.8294 6.55046V6.55139ZM13.6881 6.55139C15.1151 6.55415 16.2436 5.43502 16.2491 4.01192C16.2547 2.57685 15.1123 1.42917 13.6835 1.43193C12.2962 1.4347 11.14 2.58422 11.1354 3.96587C11.1308 5.41107 12.2538 6.54862 13.6891 6.55139H13.6881ZM22.624 16.3491C23.2053 15.1231 24.0915 14.2518 25.3038 13.677C24.3642 12.9954 23.8308 12.1157 23.7138 11.0086C23.5959 9.89036 23.968 8.92045 24.7124 8.08593C23.465 7.42919 21.8216 7.46972 20.8267 8.17896C21.8492 9.07058 22.3669 10.1962 22.2886 11.5493C22.2094 12.9079 21.5452 13.9644 20.4223 14.7584C20.8709 14.9481 21.2449 15.1673 21.5996 15.4215C21.9644 15.6822 22.2905 15.9862 22.6249 16.3491H22.624ZM16.0419 14.763C13.6669 13.0985 13.5757 9.91247 15.6641 8.14396C14.6554 7.52867 13.2211 7.45314 12.0944 7.93579C11.8273 8.05001 11.7867 8.12554 11.9857 8.37424C13.0497 9.69969 13.0543 11.5032 12.0309 12.86C11.7969 13.1695 11.5076 13.42 11.1916 13.6862C11.7978 13.9634 12.3174 14.3153 12.7706 14.7602C13.2284 15.2088 13.5803 15.7366 13.8696 16.3371C14.4887 15.6454 15.1897 15.1222 16.0419 14.763Z" fill="black"/>
<path d="M3.2813 28.5089L4.47773 28.808H5.07595V27.3125L5.67416 25.817L4.17862 24.9196L3.58041 24.3214L2.9822 24.6205L2.08487 25.5179L1.18755 26.1161L1.78577 27.3125L2.08487 28.808L3.2813 28.5089Z" fill="#FE0000"/>
<path d="M9.6822 31.7393L11.1179 32.0982H11.8358V30.3036L12.5536 28.5089L10.759 27.4321L10.0411 26.7143L9.32327 27.0732L8.24648 28.15L7.1697 28.8679L7.88755 30.3036L8.24648 32.0982L9.6822 31.7393Z" fill="#FE0000"/>
<path d="M17.9974 34.6107L19.9117 35.0893H20.8688V32.6964L21.8259 30.3036L19.4331 28.8679L18.4759 27.9107L17.5188 28.3893L16.0831 29.825L14.3483 30.6027L15.6045 32.6964L16.0831 35.0893L17.9974 34.6107Z" fill="#FE0000"/>
<path d="M26.3975 31.7393L27.7758 32.0982H28.4649V30.3036L29.1541 28.5089L27.4312 27.4321L26.7421 26.7143L26.0529 27.0732L25.0192 28.15L23.7701 28.7333L24.6746 30.3036L25.0192 32.0982L26.3975 31.7393Z" fill="#FE0000"/>
<path d="M32.8355 28.7881L34.0606 29.1071H34.6732V27.5119L35.2858 25.9167L33.7543 24.9595L33.1418 24.3214L32.5292 24.6405L31.6103 25.5976L30.5001 26.1161L31.3041 27.5119L31.6103 29.1071L32.8355 28.7881Z" fill="#FE0000"/>
</svg>

<svg xmlns="http://www.w3.org/2000/svg" width="36" height="36" fill="none"><path fill="#FE0000" d="M15.96 35.585c-.535-.257-.94-.626-.94-1.262 0-.328.053-.667.149-.98.158-.52.077-.92-.385-1.247-.23-.163-.423-.387-.615-.599a1.266 1.266 0 0 1 .683-2.113c.426-.086.858-.148 1.29-.198.195-.022.309-.1.39-.275.168-.363.355-.718.532-1.076.24-.486.63-.75 1.174-.75.544.001.932.268 1.172.755.167.338.339.674.497 1.016.094.203.217.314.462.335.42.036.84.108 1.255.194a1.263 1.263 0 0 1 .696 2.09c-.29.325-.61.623-.929.92-.159.148-.214.292-.164.513.086.38.133.766.197 1.15.103.628-.175 1.158-.751 1.433-.055.027-.145.002-.162.095h-.62c-.405-.205-.821-.39-1.21-.62-.306-.182-.56-.2-.873-.007-.39.24-.816.42-1.226.628h-.62zm.133-1.45c-.019.394.115.482.415.331q.537-.269 1.064-.557c.438-.242.87-.245 1.309-.011q.53.284 1.063.558c.108.055.217.139.35.041.13-.094.098-.223.08-.344a39 39 0 0 0-.182-1.083c-.098-.534.008-.996.425-1.375.296-.27.582-.554.86-.843.211-.22.16-.393-.14-.458a7 7 0 0 0-.78-.116c-.665-.066-1.268-.217-1.564-.918-.148-.347-.327-.68-.498-1.017-.05-.102-.105-.204-.247-.21-.16-.006-.22.104-.276.217-.19.379-.37.762-.564 1.138-.221.428-.58.664-1.059.724q-.578.076-1.156.169c-.122.02-.255.036-.304.183-.052.153.056.235.143.322.27.267.535.537.815.792.423.386.54.856.43 1.405-.074.37-.13.744-.184 1.052M.59 25.799c.266-.479.678-.699 1.22-.7.317 0 .53-.141.626-.457.044-.14.121-.272.198-.4.401-.666 1.356-.701 1.682 0 .275.591.63.851 1.274.94a.927.927 0 0 1 .5 1.622c-.485.432-.59.85-.452 1.461.154.685-.576 1.264-1.249 1.055-.498-.155-1.307-.156-1.792-.003-.677.214-1.401-.346-1.256-1.042.13-.622.075-1.103-.48-1.478-.12-.081-.182-.25-.272-.379zm2.862-.981c-.233.969-.824 1.367-1.744 1.363.779.532.996 1.205.67 2.088.744-.582 1.465-.575 2.202.026-.028-.477-.207-.848-.064-1.244.137-.377.525-.549.72-.891-1.28-.178-1.177-.177-1.784-1.342M7.411 31.381c.031-.172.078-.454.134-.735.038-.193.01-.348-.157-.485a6 6 0 0 1-.568-.55c-.285-.309-.384-.67-.247-1.079q.208-.628.862-.737c.226-.038.452-.106.678-.102.312.006.438-.173.543-.417a7 7 0 0 1 .284-.584c.21-.386.545-.596.978-.59.415.005.803.182.935.584.253.772.747 1.068 1.545 1.132.835.066 1.178 1.083.644 1.736-.115.142-.238.29-.388.388-.414.271-.447.633-.325 1.065.055.196.092.407.084.61-.033.775-.865 1.318-1.527.917-.694-.421-1.247-.432-1.95-.005-.72.44-1.562-.18-1.524-1.147zm.104-2.608c.375.512.887.754 1.059 1.266.173.517-.116 1.02-.106 1.551.512-.16.891-.576 1.439-.576.544 0 .925.415 1.414.566.103-.526-.32-.997-.094-1.534.213-.509.71-.761 1.008-1.195-.5-.176-1.056-.056-1.5-.374-.446-.32-.506-.896-.888-1.39-.292 1.239-1.043 1.808-2.332 1.685M29.953 28.805c.01.416-.143.718-.419.92-.545.396-.722.86-.503 1.525.146.446.017.895-.398 1.192-.42.302-.881.303-1.282.009-.545-.4-1.03-.375-1.568.002-.394.276-.844.297-1.255.007-.405-.287-.58-.702-.428-1.175.223-.69.03-1.185-.546-1.608-.376-.277-.46-.71-.323-1.15.14-.443.465-.738.934-.734.755.005 1.177-.345 1.412-1.042.144-.426.522-.643.968-.65s.84.19.984.618c.247.744.726 1.053 1.497 1.09.568.026.924.502.924.996zm-3.387-1.65c-.315.432-.385.989-.815 1.313-.44.332-1.007.214-1.511.388.319.428.829.67.997 1.185.166.512-.12 1.018-.09 1.645.97-.881 1.912-.8 2.9-.055-.478-1.207-.122-2.095.929-2.753-.574-.202-1.13-.083-1.575-.397-.452-.318-.507-.9-.835-1.326M35.882 26.112c.022.37-.165.644-.435.854-.353.273-.458.569-.348 1.028.173.726-.134 1.212-.744 1.357-.291.07-.556-.016-.781-.177-.402-.286-.771-.295-1.177 0-.243.175-.53.256-.846.158-.515-.161-.842-.608-.707-1.128.15-.573.05-.999-.441-1.36-.325-.24-.387-.622-.277-1.001.111-.383.38-.668.78-.677.64-.015.967-.314 1.225-.89.33-.736 1.376-.737 1.706-.003.259.578.594.848 1.225.897.523.042.817.455.821.942m-4.009 2.162c.752-.587 1.469-.582 2.22-.009-.346-.896-.068-1.561.677-2.103-.948.038-1.509-.408-1.761-1.307-.612 1.094-.37 1.077-1.83 1.337.78.517 1.04 1.187.693 2.08z"/><path fill="#000" d="M17.558 24.672c-.087.404-.233.533-.625.534-.954.004-1.907.007-2.86 0-.933-.007-1.616-.704-1.625-1.642q-.005-.537-.542-.537c-2.067 0-4.136-.031-6.202.011-1.305.028-1.845-.84-1.798-1.79.054-1.088-.063-2.183.057-3.27.207-1.883 1.177-3.26 2.837-4.16.08-.043.159-.088.255-.143-.811-.59-1.324-1.356-1.537-2.328-.441-2.017 1.096-4.131 3.15-4.34.667-.067 1.305.004 1.912.282.204.093.366.122.556-.028.142-.112.318-.18.499-.278-1.014-.79-1.581-1.795-1.54-3.1.032-1.019.434-1.86 1.174-2.549 1.467-1.364 3.773-1.23 5.139.299 1.25 1.399 1.308 3.87-.646 5.341.28.17.56.33.83.508.12.077.22.036.325 0a3.94 3.94 0 0 1 2.693.02c.13.047.224.042.342-.039.256-.172.527-.32.81-.489-1.008-.755-1.567-1.763-1.55-3.039a3.45 3.45 0 0 1 1.12-2.54C21.83-.016 24.144.077 25.5 1.587c1.314 1.462 1.344 3.897-.608 5.385.011.014.02.03.034.04.43.335.846.322 1.375.144 1.757-.595 3.692.326 4.409 2.021.174.415.097.632-.302.838-.375.041-.541-.18-.687-.49-.527-1.125-1.768-1.723-2.936-1.438-1.23.3-2.082 1.37-2.059 2.583a2.66 2.66 0 0 0 2.047 2.528c1.154.27 2.342-.28 2.91-1.375.166-.322.384-.467.738-.403.358.268.408.459.215.849-.282.565-.691 1.022-1.224 1.407.818.378 1.504.9 2.046 1.6.75.966 1.094 2.073 1.099 3.291q.003 1.395 0 2.79c-.002 1.063-.594 1.665-1.658 1.668-2.17.006-4.34.009-6.51-.006-.304-.002-.38.07-.376.374.018 1.185-.628 1.813-1.825 1.814q-1.308.001-2.618 0c-.425 0-.571-.123-.66-.535.066-.367.285-.51.656-.505.907.014 1.813.008 2.72.003.433-.002.696-.206.692-.593-.017-1.354.093-2.71-.055-4.06-.278-2.553-2.749-4.564-5.5-4.068-2.304.417-3.921 2.402-3.937 4.747-.007 1.08-.002 2.159 0 3.237.001.52.212.733.73.734.895.004 1.79.012 2.686 0 .37-.006.589.138.655.504zM8.79 21.954v.01c1.102 0 2.204-.006 3.305.006.25.002.375-.035.349-.328-.03-.319.002-.642-.009-.964-.038-1.093.131-2.143.631-3.126.062-.122.029-.213-.003-.322-.454-1.549-1.929-2.754-3.535-2.889-2.65-.223-4.547 1.954-4.52 4.104.013.986 0 1.974.002 2.96 0 .44.11.548.544.548q1.618.001 3.236 0zm18.85.021q1.618.002 3.237 0c.515 0 .617-.104.62-.63q.005-.568 0-1.136c-.01-.793.071-1.591-.044-2.375-.274-1.87-1.86-3.368-3.662-3.512-1.977-.16-3.685.938-4.345 2.782a.67.67 0 0 0 .03.58c.196.387.32.803.416 1.228.204.907.122 1.827.127 2.743 0 .245.043.33.314.327 1.102-.018 2.204-.008 3.307-.008zM18.26 8.311a3.016 3.016 0 0 0-3.047 2.984c-.016 1.639 1.335 3.016 2.97 3.03 1.703.013 3.067-1.308 3.082-2.988.015-1.657-1.333-3.015-3.004-3.026m-9.13-.278a2.585 2.585 0 0 0-2.62 2.573 2.616 2.616 0 0 0 2.585 2.657c1.433.017 2.64-1.167 2.655-2.604.015-1.436-1.167-2.62-2.62-2.626m13.7-1.482a2.557 2.557 0 0 0 2.566-2.547c.004-1.408-1.178-2.58-2.592-2.571-1.396.01-2.568 1.195-2.55 2.579A2.557 2.557 0 0 0 22.83 6.55zm-9.142 0a2.53 2.53 0 0 0 2.561-2.54 2.554 2.554 0 0 0-2.565-2.58c-1.388.004-2.544 1.153-2.549 2.535-.004 1.445 1.119 2.583 2.554 2.585m8.936 9.798c.581-1.226 1.468-2.097 2.68-2.672-.94-.682-1.473-1.561-1.59-2.668-.118-1.119.254-2.089.998-2.923-1.247-.657-2.89-.616-3.885.093 1.022.892 1.54 2.017 1.462 3.37-.08 1.359-.744 2.415-1.867 3.21.449.19.823.408 1.178.662.364.261.69.565 1.025.928zm-6.582-1.586c-2.375-1.665-2.466-4.85-.378-6.619-1.009-.615-2.443-.69-3.57-.208-.267.114-.307.19-.108.438 1.064 1.326 1.068 3.13.045 4.486-.234.31-.523.56-.84.826a5.5 5.5 0 0 1 1.58 1.074c.457.449.81.977 1.099 1.577.619-.692 1.32-1.215 2.172-1.574"/><path fill="#FE0000" d="m3.281 28.509 1.197.299h.598v-1.495l.598-1.496-1.495-.897-.599-.599-.598.3-.897.897-.897.598.598 1.197.299 1.495zM9.682 31.74l1.436.358h.718v-1.794l.718-1.795-1.795-1.077-.718-.718-.718.36-1.077 1.076-1.076.718.718 1.436.358 1.794zM17.997 34.61l1.915.48h.957v-2.394l.957-2.392-2.393-1.436-.957-.957-.957.478-1.436 1.436-1.735.778 1.256 2.093.48 2.393zM26.398 31.74l1.378.358h.689v-1.794l.69-1.795-1.724-1.077-.689-.718-.69.36-1.033 1.076-1.249.583.905 1.57.344 1.795zM32.836 28.788l1.225.32h.612v-1.596l.613-1.595-1.532-.958-.612-.638-.613.32-.919.957-1.11.518.804 1.396.306 1.595z"/></svg>
